__todo__/editorconfig.svg

<svg height="248" preserveAspectRatio="xMidYMid" viewBox="0 0 256 248" width="256" xmlns="http://www.w3.org/2000/svg"><path d="m61.3423094 145.021111c5.4051199-2.393942 9.8702191-8.378796 7.1676591-12.608093-7.4026643 2.154547-7.0501565 7.102027-7.1676591 12.608093z" fill="#e3e3f8"/><path d="m118.158527 158.746377c5.064352-1.276769 9.926129-5.74546 7.191379-10.373748-3.950194 2.154548-6.48237 5.107076-7.191379 10.373748z" fill="#e3e3f8"/><g fill="#fdfdfd"><path d="m6.52104336 224.819169c0 5.027278 1.27676893 10.453546 4.78788354 12.368699 12.9272854 7.261624 58.2525825 1.595961 73.6536077-1.835355 8.0596039-1.835355 14.6030447-7.82021 22.1838604-11.09193 17.076784-7.42122 29.445483-13.406074 43.090951-23.380831 9.894959-7.261624 25.615177-27.689926 27.290936-39.899029l-13.485872-3.032327c-.319192 13.725266-3.431316 16.837391-15.640419 20.029313-8.2192 2.234346-24.25861 2.713134-32.637406 1.276769-11.09193-1.835355-16.1192077-7.660614-21.1464853-14.283852-9.7353631-12.927286 2.1545475-21.944466-13.2464777-22.822245-16.1990058 19.869716-44.7667107 5.585864-57.2950058 3.590912-5.3464699 7.740412-17.87476507 58.013189-17.71667956 69.504109 7.74192226-2.633336 12.60960376.239394 19.55203486 2.952528 24.577802 9.495969 3.1121243 17.874765-6.7030369 15.401026-6.7030369-1.595962-8.7777864-5.984855-12.68789124-8.777787z"/><path d="m38.6796608 110.14936c9.9747573 1.915153 18.8323418 6.064652 27.290936 10.293949 13.805064 6.862633 16.2788038 5.905056 17.5555728 15.480823.1595961 1.755558-.1595961 2.713134 4.8676815 4.309095 8.4585942 2.633336-4.8676815-2.074749 17.7949669-1.994951 13.485872.079798 44.367721 5.506066 54.342478 11.810113 4.149499 2.633336 3.351518 5.984854 17.395976 5.585864-.159596-16.518198-4.548489-41.175798-11.012132-56.3374294-7.900007-18.3535534-18.353553-21.1464854-39.659635-28.0091185-12.448497-3.9899029-48.9960073-8.3787961-60.3273315-1.3565669-10.6131418 6.6232388-12.6080932 14.5232466-22.5030525 28.4081087-2.8727301 4.0697011-3.9101048 7.1818251-5.7454602 11.8101131z"/><path d="m126.537323 144.063534c7.979806 3.271721-.39899 24.418206-11.49092 19.31113-3.590913-10.134353 4.947479-15.879813 7.261623-20.428303-4.787884-.718182-18.433352-2.87273-22.5030525-1.356567-5.2666719 1.994952-6.4636428 13.246478-3.7505088 18.51315 12.7676893 25.05659 69.1849163 19.71012 63.2000623.239394-2.393942-7.900008-4.628288-9.176777-12.687891-11.889911-6.463643-2.154547-12.927286-4.388893-20.029313-4.388893z"/><path d="m26.2311637 141.270602c6.3838447 6.144451 20.8272933 7.102027 30.1636661 7.580816 1.1969708-12.368699 2.2343456-21.625274 12.1293048-20.907091 4.8676816 6.623238 2.3141437 14.443448-2.792932 19.470726 8.6979883-.079798 13.725266-6.623239 12.4484971-16.119208-7.3414214-5.266672-29.6050796-15.800016-40.7768078-17.316179-3.1121243 3.351519-10.7727379 21.705072-11.1717282 27.290936z"/></g><path d="m11.2291288 220.27068c5.2666718-.478788 18.9919379 3.511114 20.1091107 7.979806-8.5383923 1.037374-19.3909282.239394-20.1091107-7.979806zm-4.70808544 4.548489c3.91010484 2.792932 5.98485434 7.181825 12.68789124 8.777787 9.8151612 2.473739 31.2808389-5.905057 6.7030369-15.401026-6.9424311-2.713134-11.8101126-5.585864-19.55203486-2.952528-.15808551-11.49092 12.37020966-61.763697 17.71667956-69.504109 12.5282951 1.994952 41.096 16.278804 57.2950058-3.590912 15.4010252.877779 3.5111146 9.894959 13.2464777 22.822245 5.0272776 6.623238 10.0545553 12.448497 21.1464853 14.283852 8.378796 1.436365 24.418206.957577 32.637406-1.276769 12.209103-3.191922 15.321227-6.304047 15.640419-20.029313l13.485872 3.032327c-1.675759 12.209103-17.395977 32.637405-27.290936 39.899029-13.645468 9.974757-26.014167 15.959611-43.090951 23.380831-7.5808157 3.27172-14.1242565 9.256575-22.1838604 11.09193-15.4010252 3.431316-60.7263223 9.096979-73.6536077 1.835355-3.51111461-1.915153-4.78788354-7.341421-4.78788354-12.368699zm111.63748364-66.072792c.709009-5.266672 3.241185-8.2192 7.191379-10.373748 2.73475 4.628288-2.127027 9.096979-7.191379 10.373748zm8.378796-14.682843c7.102027 0 13.56567 2.234346 20.029313 4.388893 8.059603 2.713134 10.293949 3.989903 12.687891 11.889911 5.984854 19.470726-50.432373 24.817196-63.2000623-.239394-2.713134-5.266672-1.5161631-16.518198 3.7505088-18.51315 4.0697005-1.516163 17.7151685.638385 22.5030525 1.356567-2.314144 4.54849-10.852536 10.29395-7.261623 20.428303 11.09193 5.107076 19.470726-16.039409 11.49092-19.31113zm-65.1950136.957577c.1175026-5.506066-.2350052-10.453546 7.1676591-12.608093 2.70256 4.229297-1.7625392 10.214151-7.1676591 12.608093zm-35.1111457-3.750509c.3989903-5.585864 8.0596039-23.939417 11.1717282-27.290936 11.1717282 1.516163 33.4353864 12.049507 40.7768078 17.316179 1.2767689 9.495969-3.7505088 16.03941-12.4484971 16.119208 5.1070757-5.027278 7.6606136-12.847488 2.792932-19.470726-9.8949592-.718183-10.932334 8.538392-12.1293048 20.907091-9.3363728-.478789-23.7798214-1.436365-30.1636661-7.580816zm-7.9798058-6.383844c-2.9525281-8.139402-2.9525281-20.827294 9.575767-21.864668l-6.3838446 17.794967c-1.6757593 3.830306-1.6757593 2.952528-3.1919224 4.069701zm20.4283029-24.737398c1.8353554-4.628288 2.8727301-7.740412 5.7454602-11.8101131 9.8949593-13.8848621 11.8899107-21.7848699 22.5030525-28.4081087 11.3313242-7.0222292 47.8788345-2.633336 60.3273315 1.3565669 21.306082 6.8626331 31.759628 9.6555651 39.659635 28.0091185 6.463643 15.1616314 10.852536 39.8192314 11.012132 56.3374294-14.044458.39899-13.246477-2.952528-17.395976-5.585864-9.974757-6.304047-40.856606-11.730315-54.342478-11.810113-22.6626484-.079798-9.3363727 4.628287-17.7949669 1.994951-5.0272776-1.595961-4.7080854-2.553537-4.8676815-4.309095-1.276769-9.575767-3.7505088-8.61819-17.5555728-15.480823-8.4585942-4.229297-17.3161787-8.378796-27.290936-10.293949zm141.2425632-3.910105c-1.516163-5.027278 1.276769-4.708086 6.14445-8.1394023 2.792932-1.9949514 5.027278-4.069701 8.458595-5.9848543 12.847487-7.1818253 36.786904-8.3787962 47.001056.1595961 4.149499 3.4313165 10.932334 10.1343535 9.894959 18.9121395-2.154547 17.475775-14.124256 27.051542-23.939417 35.031348-9.974758 8.139402-26.572754 16.518198-43.729336 10.932334-1.436365-3.511115-.319192-25.774773-1.994952-33.993973-1.516163-7.341421-.718182-8.139402 3.511115-12.528295 12.448497-12.9272856 39.420241-22.3434564 54.741468-11.2515263 6.463643 4.7878833 4.628287 6.6232383 7.979806 10.2939493 4.149499-4.468691-3.590913-19.470726-32.158618-18.5131493-19.390928.6383844-27.769724 15.8000153-35.909126 15.0818333zm-116.1859729-45.4050955c.3989903-11.0919301 10.6131418-34.0737709 20.8272932-42.0535767 12.3686991-9.57576697 25.2959847-18.59294756 44.2879227-7.8202097 4.708085 2.6333359 4.468691 3.9899029 4.947479 10.5333437.398991 6.3040466-.159596 8.6181903-1.755557 13.725266-12.608093 40.6970097-23.141437 17.3161787-63.5192544 26.9717437 1.5161631-13.2464777 13.0070835-25.0565903 19.3909282-31.2010408 10.932334-10.6131417 18.8323422-17.4757747 35.2707422-15.2414291 4.548489 7.5808155 5.027277 12.368699-.478789 21.2262835-7.341421 11.8101126-9.176777 11.0919301-8.059604 19.151534 5.74546-1.4363651 7.501018-7.0222291 10.134354-12.6080932 16.039409-33.5151845-7.261624-37.58488546-21.545476-31.440435-9.575767 4.069701-26.6525515 22.9020427-32.2384156 34.233367-1.1171728 2.2343456-2.3141437 5.1070757-3.3515184 7.5808155zm63.2000619 1.6757592c1.675759-9.9747572 11.570719-12.448497 11.570719-43.1707495 0-13.24647765-16.278804-25.13638833-37.584886-16.27880386-18.2737551 7.50101746-21.0666871 13.24647766-30.8020502 27.92932036-9.1767767 13.8848622-8.8575845 29.1262913-16.7575922 41.9737787-2.3141437 3.6707106-4.3888932 4.9474796-6.9424311 8.6181903-1.8353554 2.7131339-3.1919223 6.1444504-5.0272777 9.3363728-3.7505087 6.1444505-7.5808155 10.6131415-10.6131417 17.9545635-9.575767.239394-17.6353709.39899-18.5929476 10.293949-1.2767689 13.56567 5.1070757 16.917188 5.1070757 22.024264-.079798 5.506066-22.42325434 61.045515-16.1990058 94.161709 1.75555728 9.096979 7.74041165 9.176777 17.3161786 10.293949 23.0616389 2.792932 52.9859107 1.835356 73.6536078-6.463642l37.5050872-17.954563c9.495969-5.34647 25.455581-15.480824 32.557608-22.902043 5.027278-5.186874 7.660614-9.575767 11.969709-15.720218 5.905056-8.61819 6.064652-8.458594 7.341421-20.188908 7.82021 1.436365 22.423254 4.867681 27.290936 9.096978-.558586 5.506066-3.27172 2.87273-3.27172 7.82021 3.112124.079798 8.298998-3.830307 9.575767-8.139402-3.271721-4.787883-6.703037-3.989903-11.411123-7.82021 3.750509-2.952528 10.533344-4.309095 15.720218-6.463642 11.171728-4.628288 30.243464-18.672746 34.951549-31.440435 3.750509-10.29395.957577-27.4505323-5.107075-34.1535692-6.383845-7.0222292-21.226284-10.6131418-33.355589-10.6131418-14.443448 0-29.365685 10.3737476-41.016202 14.8424389-4.468691-3.9101049-4.787883-8.3787962-8.059604-12.6878913-3.750508-5.1070757-28.168714-17.8747651-39.819231-20.3485049z" fill="#020202"/><path d="m179.922224 106.239255c8.139402.718182 16.518198-14.4434489 35.909126-15.0818333 28.567705-.9575767 36.308117 14.0444583 32.158618 18.5131493-3.351519-3.670711-1.516163-5.506066-7.979806-10.2939493-15.321227-11.0919301-42.292971-1.6757593-54.741468 11.2515263-4.229297 4.388893-5.027278 5.186874-3.511115 12.528295 1.67576 8.2192.558587 30.482858 1.994952 33.993973 17.156582 5.585864 33.754578-2.792932 43.729336-10.932334 9.815161-7.979806 21.78487-17.555573 23.939417-35.031348 1.037375-8.777786-5.74546-15.480823-9.894959-18.9121395-10.214152-8.5383923-34.153569-7.3414214-47.001056-.1595961-3.431317 1.9151533-5.665663 3.9899029-8.458595 5.9848543-4.867681 3.4313163-7.660613 3.1121243-6.14445 8.1394023z" fill="#fdf2f2"/><path d="m63.7362511 60.8341595 3.9101049-6.9424311c1.0373747-2.4737398 2.2343456-5.3464699 3.3515184-7.5808155 5.5858641-11.3313243 22.6626486-30.163666 32.2384156-34.233367 14.283852-6.14445046 37.584885-2.0747495 21.545476 31.440435-2.633336 5.5858641-4.388894 11.1717281-10.134354 12.6080932-1.117173-8.0596039.718183-7.3414214 8.059604-19.151534 5.506066-8.8575845 5.027278-13.645468.478789-21.2262835-16.4384-2.2343456-24.3384082 4.6282874-35.2707422 15.2414291-6.3838447 6.1444505-17.8747651 17.9545631-19.3909282 31.2010408 40.3778174-9.655565 50.9111614 13.725266 63.5192544-26.9717437 1.595961-5.1070757 2.154548-7.4212194 1.755557-13.725266-.478788-6.5434408-.239394-7.9000078-4.947479-10.5333437-18.991938-10.77273786-31.9192236-1.75555727-44.2879227 7.8202097-10.2141514 7.9798058-20.4283029 30.9616466-20.8272932 42.0535767z" fill="#fef3f3"/><path d="m18.2513579 134.886758c1.5161631-1.117173 1.5161631-.239395 3.1919224-4.069701l6.3838446-17.794967c-12.5282951 1.037374-12.5282951 13.725266-9.575767 21.864668z" fill="#efefef"/><path d="m31.3382395 228.250486c-1.1171728-4.468692-14.8424389-8.458594-20.1091107-7.979806.7181825 8.2192 11.5707184 9.01718 20.1091107 7.979806z" fill="#faf1f1"/></svg>

<?xml version="1.0" encoding="UTF-8"?>
<svg width="256px" height="248px" viewBox="0 0 256 248" version="1.1" xmlns="http://www.w3.org/2000/svg" xmlns:xlink="http://www.w3.org/1999/xlink" preserveAspectRatio="xMidYMid">
		<g>
				<path d="M61.3423094,145.021111 C66.7474293,142.627169 71.2125285,136.642315 68.5099685,132.413018 C61.1073042,134.567565 61.459812,139.515045 61.3423094,145.021111 Z" fill="#E3E3F8"></path>
				<path d="M118.158527,158.746377 C123.222879,157.469608 128.084656,153.000917 125.349906,148.372629 C121.399712,150.527177 118.867536,153.479705 118.158527,158.746377 Z" fill="#E3E3F8"></path>
				<path d="M6.52104336,224.819169 C6.52104336,229.846447 7.79781229,235.272715 11.3089269,237.187868 C24.2362123,244.449492 69.5615094,238.783829 84.9625346,235.352513 C93.0221385,233.517158 99.5655793,227.532303 107.146395,224.260583 C124.223179,216.839363 136.591878,210.854509 150.237346,200.879752 C160.132305,193.618128 175.852523,173.189826 177.528282,160.980723 L164.04241,157.948396 C163.723218,171.673662 160.611094,174.785787 148.401991,177.977709 C140.182791,180.212055 124.143381,180.690843 115.764585,179.254478 C104.672655,177.419123 99.6453773,171.593864 94.6180997,164.970626 C84.8827366,152.04334 96.7726472,143.02616 81.371622,142.148381 C65.1726162,162.018097 36.6049113,147.734245 24.0766162,145.739293 C18.7301463,153.479705 6.20185113,203.752482 6.35993664,215.243402 C14.1018589,212.610066 18.9695404,215.482796 25.9119715,218.19593 C50.4897735,227.691899 29.0240958,236.070695 19.2089346,233.596956 C12.5058977,232.000994 10.4311482,227.612101 6.52104336,224.819169 Z" fill="#FDFDFD"></path>
				<path d="M38.6796608,110.14936 C48.6544181,112.064513 57.5120026,116.214012 65.9705968,120.443309 C79.7756608,127.305942 82.2494006,126.348365 83.5261696,135.924132 C83.6857657,137.67969 83.3665735,138.637266 88.3938511,140.233227 C96.8524453,142.866563 83.5261696,138.158478 106.188818,138.238276 C119.67469,138.318074 150.556539,143.744342 160.531296,150.048389 C164.680795,152.681725 163.882814,156.033243 177.927272,155.634253 C177.767676,139.116055 173.378783,114.458455 166.91514,99.2968236 C159.015133,80.9432702 148.561587,78.1503382 127.255505,71.2877051 C114.807008,67.2978022 78.2594977,62.908909 66.9281735,69.9311382 C56.3150317,76.554377 54.3200803,84.4543848 44.425121,98.3392469 C41.5523909,102.408948 40.5150162,105.521072 38.6796608,110.14936 Z" fill="#FDFDFD"></path>
				<path d="M126.537323,144.063534 C134.517129,147.335255 126.138333,168.48174 115.046403,163.374664 C111.45549,153.240311 119.993882,147.494851 122.308026,142.946361 C117.520142,142.228179 103.874674,140.073631 99.8049735,141.589794 C94.5383016,143.584746 93.3413307,154.836272 96.0544647,160.102944 C108.822154,185.159534 165.239381,179.813064 159.254527,160.342338 C156.860585,152.44233 154.626239,151.165561 146.566636,148.452427 C140.102993,146.29788 133.63935,144.063534 126.537323,144.063534 Z" fill="#FDFDFD"></path>
				<path d="M26.2311637,141.270602 C32.6150084,147.415053 47.058457,148.372629 56.3948298,148.851418 C57.5918006,136.482719 58.6291754,127.226144 68.5241346,127.944327 C73.3918162,134.567565 70.8382783,142.387775 65.7312026,147.415053 C74.4291909,147.335255 79.4564686,140.791814 78.1796997,131.295845 C70.8382783,126.029173 48.5746201,115.495829 37.4028919,113.979666 C34.2907676,117.331185 26.630154,135.684738 26.2311637,141.270602 Z" fill="#FDFDFD"></path>
				<path d="M11.2291288,220.27068 C16.4958006,219.791892 30.2210667,223.781794 31.3382395,228.250486 C22.7998472,229.28786 11.9473113,228.48988 11.2291288,220.27068 Z M6.52104336,224.819169 C10.4311482,227.612101 12.5058977,232.000994 19.2089346,233.596956 C29.0240958,236.070695 50.4897735,227.691899 25.9119715,218.19593 C18.9695404,215.482796 14.1018589,212.610066 6.35993664,215.243402 C6.20185113,203.752482 18.7301463,153.479705 24.0766162,145.739293 C36.6049113,147.734245 65.1726162,162.018097 81.371622,142.148381 C96.7726472,143.02616 84.8827366,152.04334 94.6180997,164.970626 C99.6453773,171.593864 104.672655,177.419123 115.764585,179.254478 C124.143381,180.690843 140.182791,180.212055 148.401991,177.977709 C160.611094,174.785787 163.723218,171.673662 164.04241,157.948396 L177.528282,160.980723 C175.852523,173.189826 160.132305,193.618128 150.237346,200.879752 C136.591878,210.854509 124.223179,216.839363 107.146395,224.260583 C99.5655793,227.532303 93.0221385,233.517158 84.9625346,235.352513 C69.5615094,238.783829 24.2362123,244.449492 11.3089269,237.187868 C7.79781229,235.272715 6.52104336,229.846447 6.52104336,224.819169 Z M118.158527,158.746377 C118.867536,153.479705 121.399712,150.527177 125.349906,148.372629 C128.084656,153.000917 123.222879,157.469608 118.158527,158.746377 Z M126.537323,144.063534 C133.63935,144.063534 140.102993,146.29788 146.566636,148.452427 C154.626239,151.165561 156.860585,152.44233 159.254527,160.342338 C165.239381,179.813064 108.822154,185.159534 96.0544647,160.102944 C93.3413307,154.836272 94.5383016,143.584746 99.8049735,141.589794 C103.874674,140.073631 117.520142,142.228179 122.308026,142.946361 C119.993882,147.494851 111.45549,153.240311 115.046403,163.374664 C126.138333,168.48174 134.517129,147.335255 126.537323,144.063534 Z M61.3423094,145.021111 C61.459812,139.515045 61.1073042,134.567565 68.5099685,132.413018 C71.2125285,136.642315 66.7474293,142.627169 61.3423094,145.021111 Z M26.2311637,141.270602 C26.630154,135.684738 34.2907676,117.331185 37.4028919,113.979666 C48.5746201,115.495829 70.8382783,126.029173 78.1796997,131.295845 C79.4564686,140.791814 74.4291909,147.335255 65.7312026,147.415053 C70.8382783,142.387775 73.3918162,134.567565 68.5241346,127.944327 C58.6291754,127.226144 57.5918006,136.482719 56.3948298,148.851418 C47.058457,148.372629 32.6150084,147.415053 26.2311637,141.270602 Z M18.2513579,134.886758 C15.2988298,126.747356 15.2988298,114.059464 27.8271249,113.02209 L21.4432803,130.817057 C19.767521,134.647363 19.767521,133.769585 18.2513579,134.886758 Z M38.6796608,110.14936 C40.5150162,105.521072 41.5523909,102.408948 44.425121,98.3392469 C54.3200803,84.4543848 56.3150317,76.554377 66.9281735,69.9311382 C78.2594977,62.908909 114.807008,67.2978022 127.255505,71.2877051 C148.561587,78.1503382 159.015133,80.9432702 166.91514,99.2968236 C173.378783,114.458455 177.767676,139.116055 177.927272,155.634253 C163.882814,156.033243 164.680795,152.681725 160.531296,150.048389 C150.556539,143.744342 119.67469,138.318074 106.188818,138.238276 C83.5261696,138.158478 96.8524453,142.866563 88.3938511,140.233227 C83.3665735,138.637266 83.6857657,137.67969 83.5261696,135.924132 C82.2494006,126.348365 79.7756608,127.305942 65.9705968,120.443309 C57.5120026,116.214012 48.6544181,112.064513 38.6796608,110.14936 Z M179.922224,106.239255 C178.406061,101.211977 181.198993,101.531169 186.066674,98.0998527 C188.859606,96.1049013 191.093952,94.0301517 194.525269,92.1149984 C207.372756,84.9331731 231.312173,83.7362022 241.526325,92.2745945 C245.675824,95.705911 252.458659,102.408948 251.421284,111.186734 C249.266737,128.662509 237.297028,138.238276 227.481867,146.218082 C217.507109,154.357484 200.909113,162.73628 183.752531,157.150416 C182.316166,153.639301 183.433339,131.375643 181.757579,123.156443 C180.241416,115.815022 181.039397,115.017041 185.268694,110.628148 C197.717191,97.7008624 224.688935,88.2846916 240.010162,99.3766217 C246.473805,104.164505 244.638449,105.99986 247.989968,109.670571 C252.139467,105.20188 244.399055,90.199845 215.83135,91.1574217 C196.440422,91.7958061 188.061626,106.957437 179.922224,106.239255 Z M63.7362511,60.8341595 C64.1352414,49.7422294 74.3493929,26.7603886 84.5635443,18.7805828 C96.9322434,9.20481583 109.859529,0.187635244 128.851467,10.9603731 C133.559552,13.593709 133.320158,14.950276 133.798946,21.4937168 C134.197937,27.7977634 133.63935,30.1119071 132.043389,35.2189828 C119.435296,75.9159925 108.901952,52.5351615 68.5241346,62.1907265 C70.0402977,48.9442488 81.5312181,37.1341362 87.9150628,30.9896857 C98.8473968,20.376544 106.747405,13.513911 123.185805,15.7482566 C127.734294,23.3290721 128.213082,28.1169556 122.707016,36.9745401 C115.365595,48.7846527 113.530239,48.0664702 114.647412,56.1260741 C120.392872,54.689709 122.14843,49.103845 124.781766,43.5179809 C140.821175,10.0027964 117.520142,5.93309544 103.23629,12.0775459 C93.660523,16.1472469 76.5837385,34.9795886 70.9978744,46.3109129 C69.8807016,48.5452585 68.6837307,51.4179886 67.646356,53.8917284 L63.7362511,60.8341595 Z M126.936313,62.5099187 C128.612072,52.5351615 138.507032,50.0614217 138.507032,19.3391692 C138.507032,6.09269155 122.228228,-5.79721913 100.922146,3.06036534 C82.6483909,10.5613828 79.8554589,16.306843 70.1200958,30.9896857 C60.9433191,44.8745479 61.2625113,60.115977 53.3625036,72.9634644 C51.0483599,76.634175 48.9736104,77.910944 46.4200725,81.5816547 C44.5847171,84.2947886 43.2281502,87.7261051 41.3927948,90.9180275 C37.6422861,97.062478 33.8119793,101.531169 30.7796531,108.872591 C21.2038861,109.111985 13.1442822,109.271581 12.1867055,119.16654 C10.9099366,132.73221 17.2937812,136.083728 17.2937812,141.190804 C17.2139832,146.69687 -5.12947314,202.236319 1.0947754,235.352513 C2.85033268,244.449492 8.83518705,244.52929 18.410954,245.646462 C41.4725929,248.439394 71.3968647,247.481818 92.0645618,239.18282 L129.569649,221.228257 C139.065618,215.881787 155.02523,205.747433 162.127257,198.326214 C167.154535,193.13934 169.787871,188.750447 174.096966,182.605996 C180.002022,173.987806 180.161618,174.147402 181.438387,162.417088 C189.258597,163.853453 203.861641,167.284769 208.729323,171.514066 C208.170737,177.020132 205.457603,174.386796 205.457603,179.334276 C208.569727,179.414074 213.756601,175.503969 215.03337,171.194874 C211.761649,166.406991 208.330333,167.204971 203.622247,163.374664 C207.372756,160.422136 214.155591,159.065569 219.342465,156.911022 C230.514193,152.282734 249.585929,138.238276 254.294014,125.470587 C258.044523,115.176637 255.251591,98.0200547 249.186939,91.3170178 C242.803094,84.2947886 227.960655,80.703876 215.83135,80.703876 C201.387902,80.703876 186.465665,91.0776236 174.815148,95.5463149 C170.346457,91.63621 170.027265,87.1675187 166.755544,82.8584236 C163.005036,77.7513479 138.58683,64.9836585 126.936313,62.5099187 Z" fill="#020202"></path>
				<path d="M179.922224,106.239255 C188.061626,106.957437 196.440422,91.7958061 215.83135,91.1574217 C244.399055,90.199845 252.139467,105.20188 247.989968,109.670571 C244.638449,105.99986 246.473805,104.164505 240.010162,99.3766217 C224.688935,88.2846916 197.717191,97.7008624 185.268694,110.628148 C181.039397,115.017041 180.241416,115.815022 181.757579,123.156443 C183.433339,131.375643 182.316166,153.639301 183.752531,157.150416 C200.909113,162.73628 217.507109,154.357484 227.481867,146.218082 C237.297028,138.238276 249.266737,128.662509 251.421284,111.186734 C252.458659,102.408948 245.675824,95.705911 241.526325,92.2745945 C231.312173,83.7362022 207.372756,84.9331731 194.525269,92.1149984 C191.093952,94.0301517 188.859606,96.1049013 186.066674,98.0998527 C181.198993,101.531169 178.406061,101.211977 179.922224,106.239255 Z" fill="#FDF2F2"></path>
				<path d="M63.7362511,60.8341595 L67.646356,53.8917284 C68.6837307,51.4179886 69.8807016,48.5452585 70.9978744,46.3109129 C76.5837385,34.9795886 93.660523,16.1472469 103.23629,12.0775459 C117.520142,5.93309544 140.821175,10.0027964 124.781766,43.5179809 C122.14843,49.103845 120.392872,54.689709 114.647412,56.1260741 C113.530239,48.0664702 115.365595,48.7846527 122.707016,36.9745401 C128.213082,28.1169556 127.734294,23.3290721 123.185805,15.7482566 C106.747405,13.513911 98.8473968,20.376544 87.9150628,30.9896857 C81.5312181,37.1341362 70.0402977,48.9442488 68.5241346,62.1907265 C108.901952,52.5351615 119.435296,75.9159925 132.043389,35.2189828 C133.63935,30.1119071 134.197937,27.7977634 133.798946,21.4937168 C133.320158,14.950276 133.559552,13.593709 128.851467,10.9603731 C109.859529,0.187635244 96.9322434,9.20481583 84.5635443,18.7805828 C74.3493929,26.7603886 64.1352414,49.7422294 63.7362511,60.8341595 Z" fill="#FEF3F3"></path>
				<path d="M18.2513579,134.886758 C19.767521,133.769585 19.767521,134.647363 21.4432803,130.817057 L27.8271249,113.02209 C15.2988298,114.059464 15.2988298,126.747356 18.2513579,134.886758 Z" fill="#EFEFEF"></path>
				<path d="M31.3382395,228.250486 C30.2210667,223.781794 16.4958006,219.791892 11.2291288,220.27068 C11.9473113,228.48988 22.7998472,229.28786 31.3382395,228.250486 Z" fill="#FAF1F1"></path>
		</g>
</svg>
